!!!OTL: ES GIENG EIN MAEDCHEN GRAS SCHNEIDEN
!!!ARE: Europa, Mitteleuropa, Italia, Tirol, Meran,
!!!SCT: E0071E
!!!YEM: Copyright 1995, estate of Helmut Schaffrath.
**kern
*ICvox
*Ivox
*M6/8
*k[f#]
*G:
{8d
=1
4g
8g
8b
8b
8dd
=2
4g
8b
4b}
{8dd
=3
4dd
8dd
4cc
8cc
=4
4.b
4a}
{8dd
=5
4cc
8cc
8ee
8dd
8cc
=6
4b
8b
8dd
8cc}
{8b
=7
4a
8a
8cc
8b
8a
=8
4.g
4b}
{8dd
=9
4cc
8cc
8ee
8dd
8cc
=10
4b
8b
8dd
8cc}
{8b
=11
4a
8a
8cc
8b
8a
=12
4.g
4r}
==
!!!AGN: erzaehlendes Volks - Lied, Sage, Liebe, Ballade ?
!!!ONB: ESAC (Essen Associative Code) Database: ERK1
!!!AMT: compound duple
!!!AIN: vox
!!!EED: Helmut Schaffrath
!!!EEV: 1.0
*-
